X:990
T:Stephen's Reel
C:Traditional Scottish
N:For the dance "The Human Race" by Fried de Metz Herman
L:1/4
M:2/2
R:Reel
S:Colin Hume's website,  colinhume.com  - chords can also be printed below the stave.
Q:1/2=112
K:D
P:A
E | "A"AA/B/ cc/d/ | "/"ea ed | "A"cA AB/c/ | "G"dd/B/ GB |\
"A"A/G/A/B/ c/B/c/d/ | "/"ea ed | "A"cB/A/ "G"GB | "A"A3 g/f/ |
P:B
"A"ea ag/f/ | "/"eA Ad | "A"cA "/"AB/c/ | "G"dd/B/ Gg/f/ |\
"A"ea ag/f/ | "/"eA Ad | "A"cB/A/ "G"GB | "A"A3 g/f/ |
P:C
"A"eA cg/f/ | "/"eA cf | "A"eA AB/c/ | "G"dd/B/ GB |\
"A"AA/B/ cd | "/"ea ed | "A"cB/A/ "G"GB | "A"A3 f |
P:D
"A"ee ef | "Em"g2 fe | "G"dB GB | "/"d2 g2 |\
"A"ee ef | "Em"g2 fe | "G"dB gB | "A"A3 |]

